4. Skillbox/img/eye-circle-two.svg

<svg fill="none" height="80" viewBox="0 0 80 80" width="80" xmlns="http://www.w3.org/2000/svg" xmlns:xlink="http://www.w3.org/1999/xlink"><clipPath id="a"><path d="m25 24.2857h31.4286v31.4286h-31.4286z"/></clipPath><g clip-path="url(#a)" fill="#212133"><path d="m37.9097 43.3674c0 .3099.2512.5612.5612.5612h.7184c-.1221-.3608-.1661-.7434-.1291-1.1224h-.5893c-.31 0-.5612.2512-.5612.5612z"/><path d="m42.3527 24.3258c-.4369-.0931-.8929-.0088-1.2676.2343-.3747.2432-.6374.6252-.7304 1.0622l-1.6163 10.3041c-.0726.3921-.4088.6806-.8074.6927-.3987.0122-.7518-.2552-.8482-.6422l-1.9811-9.1143c-.0884-.6094-.5023-1.1219-1.0795-1.3365-.5771-.2146-1.2254-.097-1.6904.3066-.465.4035-.6726 1.0288-.5414 1.6304l1.8802 10.2928c.145.7838.1354 1.5883-.0281 2.3684.5739-.5664 1.1872-1.0915 1.8352-1.5714.6742-.5143 1.498-.7941 2.3459-.797h3.749l2.0765-11.4265c.0948-.4377.0114-.8951-.2319-1.2711s-.6264-.6396-1.0645-.7325z"/><path d="m43.1222 45.1183c-.2929.2122-.6247.3648-.9765.449.0762.1223.1437.2499.202.3816.0755.1729.0591.3722-.0438.5304-.1028.1582-.2782.2541-.4669.2554-.2218-.0015-.422-.1335-.5107-.3368-.3582-.8207-1.1698-1.35-2.0653-1.3469h-.7913c-.9299 0-1.6837-.7538-1.6837-1.6837s.7538-1.6837 1.6837-1.6837h1.6837c1.2398 0 2.2449-1.005 2.2449-2.2449v-.5612h-4.574c-.6072 0-1.198.1969-1.6837.5612-2.2 1.6388-4.4056 4.0801-4.4056 6.8638-.0016 1.2543.391 2.4774 1.1224 3.4964l2.8062 3.8725c.4262.5915.6255 1.3166.5612 2.0428h9.5408c0-1.5265-.1515-1.1224 2.3179-5.326.6494-1.3129 1.0074-2.7506 1.0494-4.2148v-2.5928l-1.3076 2.0821c-.5156.8888-1.5092 1.3872-2.5299 1.2691-1.0208-.1182-1.8742-.8304-2.1732-1.8135z"/><path d="m40.18 42.8061c-.1029.4707.0409.9613.3816 1.302s.8314.4845 1.3021.3816c.8137-.1796 1.1224-.8137 1.5433-1.5321 2.2898-3.6592 2.2056-3.5133 2.2449-3.6255.5154-.7239.3471-1.7285-.376-2.2449-.3641-.2036-.7946-.2529-1.1953-.1369s-.7383.3876-.9373.7542l-.1516.2414c.3222.2012.5207.5518.5276.9316v.5612c0 1.8488-1.4905 3.352-3.3393 3.3674z"/><path d="m49.0221 38.8774c-.7288-.4151-1.6561-.1645-2.0765.5613-.3255.5275.2245-.4041-2.576 4.1194-.2209.3484-.2936.7706-.2021 1.1729.1473.5913.6452 1.0297 1.2504 1.1008s1.1912-.2399 1.4716-.7809l2.5816-4.1025c.4478-.6959.2468-1.623-.449-2.071z"/></g><path clip-rule="evenodd" d="m24.6927 3.04482c4.853-2.01019 10.0544-3.04482 15.3073-3.04482s10.4543 1.03463 15.3073 3.04482c4.8531 2.01019 9.2626 4.95656 12.977 8.67088 3.7143 3.7144 6.6607 8.1239 8.6709 12.977 2.0102 4.853 3.0448 10.0544 3.0448 15.3073 0 10.6087-4.2143 20.7828-11.7157 28.2843-7.5015 7.5014-17.6756 11.7157-28.2843 11.7157-5.2529 0-10.4543-1.0346-15.3073-3.0448-4.8531-2.0102-9.2626-4.9566-12.977-8.6709-7.50143-7.5015-11.7157-17.6756-11.7157-28.2843s4.21427-20.7828 11.7157-28.2843c3.7144-3.71432 8.1239-6.66069 12.977-8.67088zm15.6644 59.09808c12.032 0 21.7858-9.7538 21.7858-21.7858 0-12.0319-9.7538-21.7857-21.7858-21.7857-12.0319 0-21.7857 9.7538-21.7857 21.7857 0 12.032 9.7538 21.7858 21.7857 21.7858z" fill="#3f2aff" fill-rule="evenodd"/></svg>

<svg width="80" height="80" viewBox="0 0 80 80" fill="none" xmlns="http://www.w3.org/2000/svg">
<g clip-path="url(#clip0)">
<path d="M37.9097 43.3674C37.9097 43.6773 38.1609 43.9286 38.4709 43.9286H39.1893C39.0672 43.5678 39.0232 43.1852 39.0602 42.8062H38.4709C38.1609 42.8062 37.9097 43.0574 37.9097 43.3674Z" fill="#212133"/>
<path d="M42.3527 24.3258C41.9158 24.2327 41.4598 24.317 41.0851 24.5601C40.7104 24.8033 40.4477 25.1853 40.3547 25.6223L38.7384 35.9264C38.6658 36.3185 38.3296 36.607 37.931 36.6191C37.5323 36.6313 37.1792 36.3639 37.0828 35.9769L35.1017 26.8626C35.0133 26.2532 34.5994 25.7407 34.0222 25.5261C33.4451 25.3115 32.7968 25.4291 32.3318 25.8327C31.8668 26.2362 31.6592 26.8615 31.7904 27.4631L33.6706 37.7559C33.8156 38.5397 33.806 39.3442 33.6425 40.1243C34.2164 39.5579 34.8297 39.0328 35.4777 38.5529C36.1519 38.0386 36.9757 37.7588 37.8236 37.7559H41.5726L43.6491 26.3294C43.7439 25.8917 43.6605 25.4343 43.4172 25.0583C43.1739 24.6823 42.7908 24.4187 42.3527 24.3258Z" fill="#212133"/>
<path d="M43.1222 45.1183C42.8293 45.3305 42.4975 45.4831 42.1457 45.5673C42.2219 45.6896 42.2894 45.8172 42.3477 45.9489C42.4232 46.1218 42.4068 46.3211 42.3039 46.4793C42.2011 46.6375 42.0257 46.7334 41.837 46.7347C41.6152 46.7332 41.415 46.6012 41.3263 46.3979C40.9681 45.5772 40.1565 45.0479 39.261 45.051H38.4697C37.5398 45.051 36.786 44.2972 36.786 43.3673C36.786 42.4374 37.5398 41.6836 38.4697 41.6836H40.1534C41.3932 41.6836 42.3983 40.6786 42.3983 39.4387V38.8775H37.8243C37.2171 38.8775 36.6263 39.0744 36.1406 39.4387C33.9406 41.0775 31.735 43.5188 31.735 46.3025C31.7334 47.5568 32.126 48.7799 32.8574 49.7989L35.6636 53.6714C36.0898 54.2629 36.2891 54.988 36.2248 55.7142H45.7656C45.7656 54.1877 45.6141 54.5918 48.0835 50.3882C48.7329 49.0753 49.0909 47.6376 49.1329 46.1734V43.5806L47.8253 45.6627C47.3097 46.5515 46.3161 47.0499 45.2954 46.9318C44.2746 46.8136 43.4212 46.1014 43.1222 45.1183Z" fill="#212133"/>
<path d="M40.18 42.8061C40.0771 43.2768 40.2209 43.7674 40.5616 44.1081C40.9023 44.4488 41.393 44.5926 41.8637 44.4897C42.6774 44.3101 42.9861 43.676 43.407 42.9576C45.6968 39.2984 45.6126 39.4443 45.6519 39.3321C46.1673 38.6082 45.999 37.6036 45.2759 37.0872C44.9118 36.8836 44.4813 36.8343 44.0806 36.9503C43.6799 37.0663 43.3423 37.3379 43.1433 37.7045L42.9917 37.9459C43.3139 38.1471 43.5124 38.4977 43.5193 38.8775V39.4387C43.5193 41.2875 42.0288 42.7907 40.18 42.8061Z" fill="#212133"/>
<path d="M49.0221 38.8774C48.2933 38.4623 47.366 38.7129 46.9456 39.4387C46.6201 39.9662 47.1701 39.0346 44.3696 43.5581C44.1487 43.9065 44.076 44.3287 44.1675 44.731C44.3148 45.3223 44.8127 45.7607 45.4179 45.8318C46.0231 45.9029 46.6091 45.5919 46.8895 45.0509L49.4711 40.9484C49.9189 40.2525 49.7179 39.3254 49.0221 38.8774Z" fill="#212133"/>
</g>
<path fill-rule="evenodd" clip-rule="evenodd" d="M24.6927 3.04482C29.5457 1.03463 34.7471 0 40 0C45.2529 0 50.4543 1.03463 55.3073 3.04482C60.1604 5.05501 64.5699 8.00138 68.2843 11.7157C71.9986 15.4301 74.945 19.8396 76.9552 24.6927C78.9654 29.5457 80 34.7471 80 40C80 50.6087 75.7857 60.7828 68.2843 68.2843C60.7828 75.7857 50.6087 80 40 80C34.7471 80 29.5457 78.9654 24.6927 76.9552C19.8396 74.945 15.4301 71.9986 11.7157 68.2843C4.21427 60.7828 0 50.6087 0 40C0 29.3913 4.21427 19.2172 11.7157 11.7157C15.4301 8.00138 19.8396 5.05501 24.6927 3.04482ZM40.3571 62.1429C52.3891 62.1429 62.1429 52.3891 62.1429 40.3571C62.1429 28.3252 52.3891 18.5714 40.3571 18.5714C28.3252 18.5714 18.5714 28.3252 18.5714 40.3571C18.5714 52.3891 28.3252 62.1429 40.3571 62.1429Z" fill="#3F2AFF"/>
<defs>
<clipPath id="clip0">
<rect width="31.4286" height="31.4286" fill="white" transform="translate(25 24.2857)"/>
</clipPath>
</defs>
</svg>
